X: 22274
T: Lá Ollamh
R: slip jig
M: 9/8
K: Dmajor
|:BAB dBA ~A3|BAB dBd edB|def gaf g2e|dBd G (3Bcd fed:|
|:eAA efg ~f3|eAA efg agf|eAA efg (3faf e|dBd G (3Bcd fed:|

